symbols/web/gpp_maybe/materialsymbolsrounded/gpp_maybe_fill1_48px.svg

<svg xmlns="http://www.w3.org/2000/svg" height="48" width="48"><path d="M24 24.15q.65 0 1.075-.425.425-.425.425-1.075V15.3q0-.65-.425-1.075Q24.65 13.8 24 13.8q-.65 0-1.075.425-.425.425-.425 1.075v7.35q0 .65.425 1.075.425.425 1.075.425Zm0 6.7q.7 0 1.2-.5t.5-1.2q0-.7-.5-1.2t-1.2-.5q-.7 0-1.2.5t-.5 1.2q0 .7.5 1.2t1.2.5Zm0 13q-.2 0-.375-.025t-.325-.075q-6.7-2-11-8.225T8 21.85v-9.8q0-.95.55-1.725.55-.775 1.4-1.125l13-4.85q.55-.2 1.05-.2t1.05.2l13 4.85q.85.35 1.4 1.125.55.775.55 1.725v9.8q0 7.45-4.3 13.675-4.3 6.225-11 8.225l-.7.1Z"/></svg>

<svg xmlns="http://www.w3.org/2000/svg" height="48" width="48"><path d="M24 24.15Q24.65 24.15 25.075 23.725Q25.5 23.3 25.5 22.65V15.3Q25.5 14.65 25.075 14.225Q24.65 13.8 24 13.8Q23.35 13.8 22.925 14.225Q22.5 14.65 22.5 15.3V22.65Q22.5 23.3 22.925 23.725Q23.35 24.15 24 24.15ZM24 30.85Q24.7 30.85 25.2 30.35Q25.7 29.85 25.7 29.15Q25.7 28.45 25.2 27.95Q24.7 27.45 24 27.45Q23.3 27.45 22.8 27.95Q22.3 28.45 22.3 29.15Q22.3 29.85 22.8 30.35Q23.3 30.85 24 30.85ZM24 43.85Q23.8 43.85 23.625 43.825Q23.45 43.8 23.3 43.75Q16.6 41.75 12.3 35.525Q8 29.3 8 21.85V12.05Q8 11.1 8.55 10.325Q9.1 9.55 9.95 9.2L22.95 4.35Q23.5 4.15 24 4.15Q24.5 4.15 25.05 4.35L38.05 9.2Q38.9 9.55 39.45 10.325Q40 11.1 40 12.05V21.85Q40 29.3 35.7 35.525Q31.4 41.75 24.7 43.75Q24.7 43.75 24 43.85Z"/></svg>
